assets/img/logo.svg

<svg xmlns="http://www.w3.org/2000/svg" width="1516" height="891" style="shape-rendering:geometricPrecision;text-rendering:geometricPrecision;image-rendering:optimizeQuality;fill-rule:evenodd;clip-rule:evenodd">
    <path style="opacity:.998" d="M659.5 151.5c-1.031 2.461-1.698 5.127-2 8a6521.31 6521.31 0 0 1-6.5 126c-3.262 49.397-6.595 98.73-10 148a91.548 91.548 0 0 0 .5 23c4.077 3.893 8.077 3.893 12 0a11885.957 11885.957 0 0 1 68.5-97c4.642-5.432 10.476-7.932 17.5-7.5a84463.655 84463.655 0 0 0 76 40 142.432 142.432 0 0 0 12.5-2.5c2.3-.006 4.466.494 6.5 1.5a4393.587 4393.587 0 0 1 45 79.5c1.574 1.131 3.241 1.298 5 .5 4.965-3.621 7.798-8.455 8.5-14.5a31868.04 31868.04 0 0 1 26-356c3.259-19.026 12.093-34.86 26.5-47.5a22.956 22.956 0 0 1 5-2c44.246-6.51 88.41-13.01 132.5-19.5 3.27.423 6.44 1.256 9.5 2.5 8.98 6.454 15.14 14.954 18.5 25.5a73.43 73.43 0 0 1 1.5 12c-1 10.018-2.17 20.018-3.5 30a127809.897 127809.897 0 0 1-104 705 40.001 40.001 0 0 1-5 13 39.806 39.806 0 0 0-7 8 24.648 24.648 0 0 1-11.5 4.5c-35.333.667-70.667.667-106 0-6.969-1.632-11.802-5.799-14.5-12.5a8348.9 8348.9 0 0 1-60-162c-4.099-8.927-10.932-12.094-20.5-9.5a3120.932 3120.932 0 0 0-53-14.5c-4.974.789-9.141 3.123-12.5 7a15470.127 15470.127 0 0 0-95 180 45.689 45.689 0 0 0-7.5 8.5 57.56 57.56 0 0 1-8 3c-36 .667-72 .667-108 0a57.56 57.56 0 0 1-8-3c-7.371-6.75-10.871-15.25-10.5-25.5a51726.033 51726.033 0 0 1 1-642c4.415-14.989 12.915-27.155 25.5-36.5 41.58-21.652 83.247-43.318 125-65 9.716-2.122 18.383-.122 26 6a26.597 26.597 0 0 1 6.5 10.5 976.146 976.146 0 0 1-2.5 75Z"/>
    <path style="opacity:.997" d="M1174.5 96.5c6.39-.71 12.39.457 18 3.5 3.91 4.236 7.41 8.736 10.5 13.5a9312.831 9312.831 0 0 1 79 99c6.37 11.222 10.37 23.222 12 36 1.62 88.089 3.95 176.089 7 264 2.32 8.64 5.98 16.64 11 24a440.683 440.683 0 0 1 24.5 25.5 67.116 67.116 0 0 0 10 4.5 445.97 445.97 0 0 0 31.5-30c12.79-14.121 26.12-27.454 40-40 1.49.817 2.99 1.65 4.5 2.5 3.4 5.976 6.4 12.143 9 18.5a7711.062 7711.062 0 0 0 41 114.5 304.367 304.367 0 0 1 15 53.5 7.248 7.248 0 0 1-2 2.5 4302.58 4302.58 0 0 0-79 33c-4.71.496-9.37.162-14-1a261.19 261.19 0 0 0-24.5-10.5c-4.69.833-7.69 3.5-9 8a8127.103 8127.103 0 0 1-20 102c-2.17 2.833-4.33 5.667-6.5 8.5a32.543 32.543 0 0 0-7 3 1448.62 1448.62 0 0 1-106 1 35.637 35.637 0 0 1-9-3c-5.87-6.47-7.53-13.97-5-22.5a6611.325 6611.325 0 0 1 26-122c7.88-23.7 2.55-43.533-16-59.5-16.75-8.77-26.58-22.604-29.5-41.5-7.47-157.073-14.8-314.073-22-471 1.18-3.717 2.51-7.384 4-11 1.8-2.326 3.97-3.992 6.5-5ZM396.5 226.5c7.956-1.235 14.123 1.432 18.5 8a54.628 54.628 0 0 1 2 7 738.517 738.517 0 0 1 2 88 264.872 264.872 0 0 1-7 25c-7.825 15.503-17.658 29.67-29.5 42.5a23350.382 23350.382 0 0 1-183 154c-19.073 15.915-34.74 34.748-47 56.5a70.417 70.417 0 0 0-3.5 11c.28 34.012 1.28 68.012 3 102-.023 11.802 5.811 18.302 17.5 19.5 10.925.511 21.591-.989 32-4.5a2637.783 2637.783 0 0 0 103-32.5c5.963-4.929 8.63-11.262 8-19-.476-7.168-.976-14.335-1.5-21.5-1.729-3.203-4.396-5.203-8-6a7035.903 7035.903 0 0 0-73.5 30.5c-7.347 1.957-14.681 1.957-22 0a34.949 34.949 0 0 1-5.5-8.5c-.875-17.831-1.708-35.665-2.5-53.5a58.512 58.512 0 0 1 1.5-13.5c4.898-10.897 11.732-20.397 20.5-28.5a13265.476 13265.476 0 0 0 129-90 66.876 66.876 0 0 0 13-8.5c9.737-4.749 19.904-7.749 30.5-9 23.562 2.158 36.229 15.158 38 39a8828.135 8828.135 0 0 1 2 231c-3.22 31.295-17.387 56.128-42.5 74.5-10.875 7.181-22.875 11.181-36 12-76.344.933-152.677.599-229-1a549.372 549.372 0 0 1-31-3c-20.78-2.862-40.78-8.529-60-17a39.879 39.879 0 0 0-9-6 28.4 28.4 0 0 1-4.5-7.5c-.667-27-.667-54 0-81a159.46 159.46 0 0 1 14-35 1586.68 1586.68 0 0 1 74-124 1723.488 1723.488 0 0 0 40-57 7511.437 7511.437 0 0 0 134-158 4157.473 4157.473 0 0 0 82-96c8.52-9.385 18.687-16.052 30.5-20Z"/>
</svg>

<svg xmlns="http://www.w3.org/2000/svg" version="1.1" width="1516px" height="891px" style="shape-rendering:geometricPrecision; text-rendering:geometricPrecision; image-rendering:optimizeQuality; fill-rule:evenodd; clip-rule:evenodd" xmlns:xlink="http://www.w3.org/1999/xlink">
<g><path style="opacity:0.998" d="M 659.5,151.5 C 658.469,153.961 657.802,156.627 657.5,159.5C 655.74,201.517 653.573,243.517 651,285.5C 647.738,334.897 644.405,384.23 641,433.5C 640.2,441.216 640.367,448.883 641.5,456.5C 645.577,460.393 649.577,460.393 653.5,456.5C 676.241,423.954 699.075,391.621 722,359.5C 726.642,354.068 732.476,351.568 739.5,352C 764.788,365.326 790.121,378.659 815.5,392C 819.639,391.366 823.806,390.533 828,389.5C 830.3,389.494 832.466,389.994 834.5,391C 849.84,417.458 864.84,443.958 879.5,470.5C 881.074,471.631 882.741,471.798 884.5,471C 889.465,467.379 892.298,462.545 893,456.5C 901.006,337.729 909.673,219.062 919,100.5C 922.259,81.4741 931.093,65.6408 945.5,53C 947.087,52.1376 948.754,51.4709 950.5,51C 994.746,44.4891 1038.91,37.9891 1083,31.5C 1086.27,31.9227 1089.44,32.756 1092.5,34C 1101.48,40.4543 1107.64,48.9543 1111,59.5C 1111.83,63.4592 1112.33,67.4592 1112.5,71.5C 1111.5,81.5181 1110.33,91.5181 1109,101.5C 1074.96,336.801 1040.29,571.801 1005,806.5C 1004.09,811.126 1002.43,815.46 1000,819.5C 997.294,821.871 994.961,824.537 993,827.5C 989.548,829.976 985.715,831.476 981.5,832C 946.167,832.667 910.833,832.667 875.5,832C 868.531,830.368 863.698,826.201 861,819.5C 840.448,765.725 820.448,711.725 801,657.5C 796.901,648.573 790.068,645.406 780.5,648C 762.867,643.009 745.2,638.175 727.5,633.5C 722.526,634.289 718.359,636.623 715,640.5C 682.974,700.225 651.307,760.225 620,820.5C 617.157,823.011 614.657,825.844 612.5,829C 609.911,830.197 607.244,831.197 604.5,832C 568.5,832.667 532.5,832.667 496.5,832C 493.756,831.197 491.089,830.197 488.5,829C 481.129,822.25 477.629,813.75 478,803.5C 477.005,589.466 477.339,375.466 479,161.5C 483.415,146.511 491.915,134.345 504.5,125C 546.08,103.348 587.747,81.6816 629.5,60C 639.216,57.8783 647.883,59.8783 655.5,66C 658.491,68.9904 660.657,72.4904 662,76.5C 662.128,101.526 661.295,126.526 659.5,151.5 Z"/></g>
<g><path style="opacity:0.997" d="M 1174.5,96.5 C 1180.89,95.7906 1186.89,96.9573 1192.5,100C 1196.41,104.236 1199.91,108.736 1203,113.5C 1229.58,146.353 1255.92,179.353 1282,212.5C 1288.37,223.722 1292.37,235.722 1294,248.5C 1295.62,336.589 1297.95,424.589 1301,512.5C 1303.32,521.14 1306.98,529.14 1312,536.5C 1320.53,544.697 1328.7,553.197 1336.5,562C 1339.71,563.774 1343.05,565.274 1346.5,566.5C 1357.48,557.02 1367.98,547.02 1378,536.5C 1390.79,522.379 1404.12,509.046 1418,496.5C 1419.49,497.317 1420.99,498.15 1422.5,499C 1425.9,504.976 1428.9,511.143 1431.5,517.5C 1444.87,555.791 1458.54,593.958 1472.5,632C 1479.13,649.372 1484.13,667.205 1487.5,685.5C 1487.02,686.478 1486.36,687.311 1485.5,688C 1458.96,698.78 1432.62,709.78 1406.5,721C 1401.79,721.496 1397.13,721.162 1392.5,720C 1384.46,716.06 1376.29,712.56 1368,709.5C 1363.31,710.333 1360.31,713 1359,717.5C 1352.54,751.606 1345.87,785.606 1339,819.5C 1336.83,822.333 1334.67,825.167 1332.5,828C 1330.05,828.725 1327.72,829.725 1325.5,831C 1290.2,832.626 1254.87,832.96 1219.5,832C 1216.36,831.399 1213.36,830.399 1210.5,829C 1204.63,822.53 1202.97,815.03 1205.5,806.5C 1213.77,765.805 1222.44,725.138 1231.5,684.5C 1239.38,660.8 1234.05,640.967 1215.5,625C 1198.75,616.23 1188.92,602.396 1186,583.5C 1178.53,426.427 1171.2,269.427 1164,112.5C 1165.18,108.783 1166.51,105.116 1168,101.5C 1169.8,99.1743 1171.97,97.5077 1174.5,96.5 Z"/></g>
<g><path style="opacity:0.997" d="M 396.5,226.5 C 404.456,225.265 410.623,227.932 415,234.5C 415.822,236.788 416.489,239.122 417,241.5C 419.416,270.765 420.082,300.098 419,329.5C 417.081,337.927 414.748,346.26 412,354.5C 404.175,370.003 394.342,384.17 382.5,397C 321.925,448.509 260.925,499.843 199.5,551C 180.427,566.915 164.76,585.748 152.5,607.5C 151.033,611.069 149.866,614.736 149,618.5C 149.28,652.512 150.28,686.512 152,720.5C 151.977,732.302 157.811,738.802 169.5,740C 180.425,740.511 191.091,739.011 201.5,735.5C 236.079,725.362 270.412,714.529 304.5,703C 310.463,698.071 313.13,691.738 312.5,684C 312.024,676.832 311.524,669.665 311,662.5C 309.271,659.297 306.604,657.297 303,656.5C 278.446,666.527 253.946,676.693 229.5,687C 222.153,688.957 214.819,688.957 207.5,687C 205.242,684.415 203.409,681.582 202,678.5C 201.125,660.669 200.292,642.835 199.5,625C 199.477,620.432 199.977,615.932 201,611.5C 205.898,600.603 212.732,591.103 221.5,583C 264.705,553.236 307.705,523.236 350.5,493C 355.175,490.664 359.508,487.831 363.5,484.5C 373.237,479.751 383.404,476.751 394,475.5C 417.562,477.658 430.229,490.658 432,514.5C 433.674,591.493 434.341,668.493 434,745.5C 430.78,776.795 416.613,801.628 391.5,820C 380.625,827.181 368.625,831.181 355.5,832C 279.156,832.933 202.823,832.599 126.5,831C 116.139,830.293 105.805,829.293 95.5,828C 74.7204,825.138 54.7204,819.471 35.5,811C 32.7511,808.577 29.7511,806.577 26.5,805C 24.6227,802.749 23.1227,800.249 22,797.5C 21.3333,770.5 21.3333,743.5 22,716.5C 25.2948,704.25 29.9615,692.583 36,681.5C 58.8233,638.979 83.49,597.646 110,557.5C 123.701,538.792 137.035,519.792 150,500.5C 195.417,448.421 240.084,395.754 284,342.5C 311.787,310.953 339.12,278.953 366,246.5C 374.52,237.115 384.687,230.448 396.5,226.5 Z"/></g>
</svg>
